icons/arrow-block-downleftB.svg

<svg width="24" height="24" viewBox="0 0 24 24" fill="none" xmlns="http://www.w3.org/2000/svg">
<path d="M8.44883 7.16709L10.8488 9.56709L15.2488 5.16709C15.4488 4.96709 15.8488 4.96709 16.0488 5.16709L18.8488 7.96709C19.0488 8.16709 19.0488 8.56709 18.8488 8.76709L14.4488 13.1671L16.8488 15.5671C16.9488 15.6671 16.9488 15.9671 16.7488 16.0671L5.74883 18.9671C5.34883 19.0671 4.84883 18.6671 5.04883 18.2671L7.94883 7.26709C8.04883 7.06709 8.24883 7.06709 8.44883 7.16709Z" fill="black"/>
<path fill-rule="evenodd" clip-rule="evenodd" d="M15.6489 5.82775L10.8488 10.6278L8.46655 8.24545L5.85155 18.1644L15.7705 15.5494L13.3882 13.1671L18.1882 8.36709L15.6489 5.82775ZM15.6488 4.26709C15.9477 4.26709 16.3067 4.36428 16.5792 4.63676L19.3792 7.43676C19.6517 7.70924 19.7488 8.06823 19.7488 8.36709C19.7488 8.66595 19.6517 9.02494 19.3792 9.29742L15.5095 13.1671L17.3792 15.0368C17.6542 15.3118 17.6839 15.6831 17.6556 15.9101C17.6225 16.175 17.4749 16.5426 17.0843 16.7379L17.015 16.7726L5.93077 19.6948C5.44391 19.8165 4.96791 19.6332 4.66706 19.3575C4.36557 19.0811 4.11068 18.5709 4.3392 18.0168L7.24338 7.00098L7.27803 6.93168C7.43197 6.62379 7.71091 6.41132 8.05528 6.36213C8.35103 6.31988 8.61075 6.40951 8.78426 6.49627L8.89312 6.5507L10.8488 8.50643L14.7185 4.63676C14.991 4.36428 15.35 4.26709 15.6488 4.26709Z" fill="black"/>
</svg>

<svg xmlns="http://www.w3.org/2000/svg" fill="none" viewBox="0 0 24 24">
  <path fill="#000" d="m8.449 7.167 2.4 2.4 4.4-4.4c.2-.2.6-.2.8 0l2.8 2.8c.2.2.2.6 0 .8l-4.4 4.4 2.4 2.4c.1.1.1.4-.1.5l-11 2.9c-.4.1-.9-.3-.7-.7l2.9-11c.1-.2.3-.2.5-.1Z"/>
  <path fill="#000" fill-rule="evenodd" d="m15.649 5.828-4.8 4.8-2.382-2.383-2.615 9.92 9.918-2.616-2.382-2.382 4.8-4.8-2.54-2.54Zm0-1.56c.299 0 .658.096.93.369l2.8 2.8c.273.272.37.631.37.93 0 .299-.097.658-.37.93l-3.87 3.87 1.87 1.87c.275.275.305.646.277.873a1.064 1.064 0 0 1-.572.828l-.069.035-11.084 2.922c-.487.122-.963-.062-1.264-.337-.301-.277-.556-.787-.328-1.341L7.243 7l.035-.07c.154-.307.433-.52.777-.569.296-.042.556.048.73.134l.108.055 1.956 1.955 3.87-3.87c.272-.272.631-.369.93-.369Z" clip-rule="evenodd"/>
</svg>
